src/topics/icons/containership.svg

<?xml version="1.0" encoding="UTF-8" standalone="no"?>
<svg width="256px" height="296px" viewBox="0 0 256 296" version="1.1" xmlns="http://www.w3.org/2000/svg" xmlns:xlink="http://www.w3.org/1999/xlink" preserveAspectRatio="xMidYMid">
	<g>
		<path d="M127.9998,0.3968 L-0.0002,74.2978 L-0.0002,222.0988 L127.9998,295.9998 L255.9998,222.0988 L255.9998,162.0008 L235.9698,162.0008 L235.9698,210.5348 L127.9998,272.8708 L20.0308,210.5348 L20.0308,85.8618 L127.9998,23.5258 L235.9698,85.8618 L235.9698,134.3958 L255.9998,134.3958 L255.9998,74.2978 L127.9998,0.3968 Z" fill="#384453"></path>
		<path d="M206.0051,91.3414 L127.6581,136.6094 L69.7901,102.8224 L127.6551,69.1314 L169.0581,93.0114 L188.1951,81.6544 L127.6081,46.7104 L39.6911,97.9004 L39.6911,107.7104 L127.6051,159.0434 L196.2721,119.3684 L196.2721,187.5374 L127.6461,227.8414 L59.2391,187.4294 L59.2391,140.1244 L39.8401,129.1884 L39.8401,198.4984 L127.6171,250.3524 L215.6711,198.6414 L215.6711,97.1414 L206.0051,91.3414 Z" fill="#27D1B9"></path>
	</g>
</svg>

<svg height="296" preserveAspectRatio="xMidYMid" viewBox="0 0 256 296" width="256" xmlns="http://www.w3.org/2000/svg"><path d="m127.9998.3968-128 73.901v147.801l128 73.901 128-73.901v-60.098h-20.03v48.534l-107.97 62.336-107.969-62.336v-124.673l107.969-62.336 107.97 62.336v48.534h20.03v-60.098z" fill="#384453"/><path d="m206.0051 91.3414-78.347 45.268-57.868-33.787 57.865-33.691 41.403 23.88 19.137-11.357-60.587-34.944-87.917 51.19v9.81l87.914 51.333 68.667-39.675v68.169l-68.626 40.304-68.407-40.412v-47.305l-19.399-10.936v69.31l87.777 51.854 88.054-51.711v-101.5z" fill="#27d1b9"/></svg>
